; generated by PrusaSlicer 2.6.1+win64 on 2023-09-12 at 01:51:42 UTC


;
;

;
;
; 

; external perimeters extrusion width = 0.42mm
; perimeters extrusion width = 0.44mm
; infill extrusion width = 0.44mm
; solid infill extrusion width = 0.44mm
; top infill extrusion width = 0.44mm
; support material extrusion width = 0.35mm

M190 S60 ; set bed temperature and wait for it to be reached
M104 S215 ; set temperature
;TYPE:Custom
M117 ; Clear displays current message (This is included to avoid an error with Adaptive_Bed_Mesh
print_start EXTRUDER_TEMP=215 BED_TEMP=60
M109 S215 ; set temperature and wait for it to be reached
G21 ; set units to millimeters
G90 ; use absolute coordinates
M82 ; use absolute distances for extrusion
G92 E0
; Filament gcode
;SET_PRESSURE_ADVANCE ADVANCE=0.2
M107
;LAYER_CHANGE
;Z:0.35
;HEIGHT:0.35
TIMELAPSE_TAKE_FRAME
G1 E-.5 F2400
G92 E0
G1 Z.35 F9000
G1 Z.55
G1 X92.729 Y32.773
G1 Z.35
G1 E.5 F2400
;TYPE:Skirt/Brim
;WIDTH:0.44
G1 F900
G1 X93.876 Y30.695 E.62351
G1 X95.644 Y29.111 E.74703
G1 X97.836 Y28.199 E.87057
G1 X99.426 Y28.019 E.95383
G1 X131.86 Y28.019 E2.64151
G1 X134.2 Y28.416 E2.76501
G1 X136.279 Y29.563 E2.88856
G1 X137.863 Y31.332 E3.01212
G1 X138.774 Y33.524 E3.13564
G1 X138.955 Y35.114 E3.21891
G1 X138.955 Y67.548 E4.90659
G1 X138.557 Y69.888 E5.0301
G1 X137.41 Y71.966 E5.15361
G1 X135.642 Y73.55 E5.27713
G1 X133.45 Y74.462 E5.40067
G1 X131.86 Y74.642 E5.48393
G1 X99.426 Y74.642 E7.17161
G1 X97.086 Y74.245 E7.29511
G1 X95.007 Y73.098 E7.41866
G1 X93.423 Y71.329 E7.54222
G1 X92.512 Y69.137 E7.66574
G1 X92.331 Y67.548 E7.74896
G1 X92.331 Y35.114 E9.43664
G1 X92.719 Y32.832 E9.55709
G1 X93.083 Y32.896 F9000
G1 F900
G1 X93.093 Y32.836 E9.56026
G1 X94.238 Y30.828 E9.68054
G1 X95.994 Y29.325 E9.80081
G1 X98.155 Y28.505 E9.92108
G1 X99.426 Y28.384 E9.98751
G1 X131.86 Y28.384 E11.67519
G1 X134.137 Y28.781 E11.79546
G1 X136.146 Y29.925 E11.91576
G1 X137.649 Y31.682 E12.03607
G1 X138.469 Y33.843 E12.15634
G1 X138.59 Y35.114 E12.22277
G1 X138.59 Y67.548 E13.91045
G1 X138.193 Y69.825 E14.03072
G1 X137.048 Y71.833 E14.151
G1 X135.292 Y73.336 E14.27127
G1 X133.131 Y74.156 E14.39154
G1 X131.86 Y74.277 E14.45797
G1 X99.426 Y74.277 E16.14565
G1 X97.149 Y73.88 E16.26592
G1 X95.14 Y72.736 E16.38622
G1 X93.637 Y70.98 E16.50649
G1 X92.817 Y68.818 E16.62681
G1 X92.696 Y67.548 E16.69319
G1 X92.696 Y35.114 E18.38087
G1 X93.073 Y32.955 E18.49491
G1 X93.437 Y33.02 F9000
G1 F900
G1 X93.458 Y32.901 E18.5012
G1 X94.599 Y30.965 E18.61813
G1 X96.342 Y29.546 E18.73508
G1 X99.426 Y28.749 E18.90083
G1 X131.86 Y28.749 E20.58851
G1 X134.072 Y29.146 E20.70545
G1 X136.009 Y30.287 E20.82243
G1 X137.428 Y32.03 E20.93938
G1 X138.225 Y35.114 E21.10513
G1 X138.225 Y67.548 E22.79281
G1 X137.828 Y69.76 E22.90975
G1 X136.687 Y71.696 E23.02668
G1 X134.944 Y73.115 E23.14363
G1 X131.86 Y73.912 E23.30938
G1 X99.426 Y73.912 E24.99706
G1 X97.214 Y73.516 E25.11399
G1 X95.277 Y72.374 E25.23099
G1 X93.858 Y70.631 E25.34794
G1 X93.061 Y67.548 E25.51364
G1 X93.061 Y35.114 E27.20132
G1 X93.426 Y33.079 E27.3089
; printing object Shape-Box id:0 copy 0
G1 E26.8089 F2400
G92 E0
G1 Z.55 F9000
G1 X130.93 Y66.618
G1 Z.35
G1 E.5 F2400
;TYPE:Perimeter
;WIDTH:0.44
G1 F900
G1 X100.356 Y66.618 E2.09089
G1 X100.356 Y36.043 E3.68184
G1 X130.93 Y36.043 E5.27273
G1 X130.93 Y66.558 E6.86055
G1 X131.295 Y66.983 F9000
G1 F900
G1 X99.991 Y66.983 E8.48943
G1 X99.991 Y35.679 E10.11831
G1 X131.295 Y35.679 E11.74719
G1 X131.295 Y66.923 E13.37295
G1 X131.65 Y67.338 F9000
;TYPE:External perimeter
;WIDTH:0.42
G1 F900
G1 X99.636 Y67.338 E14.94747
G1 X99.636 Y35.324 E16.52199
G1 X131.65 Y35.324 E18.09651
G1 X131.65 Y67.278 E19.66808
G1 X131.264 Y67.234 F9000
G1 E19.16808 F2400
G92 E0
G1 Z.55 F9000
G1 X130.078 Y36.153
G1 Z.35
G1 E.5 F2400
;TYPE:Solid infill
;WIDTH:0.442466
G1 F900
G1 X130.657 Y36.732 E.5429
G1 X130.657 Y37.251 E.57009
G1 X129.723 Y36.317 E.63929
G1 X129.203 Y36.317 E.66653
G1 X130.657 Y37.771 E.77425
G1 X130.657 Y38.29 E.80144
G1 X128.683 Y36.317 E.94765
G1 X128.164 Y36.317 E.97484
G1 X130.657 Y38.81 E1.15953
G1 X130.657 Y39.329 E1.18672
G1 X127.644 Y36.317 E1.4099
G1 X127.125 Y36.317 E1.43709
G1 X130.657 Y39.849 E1.69876
G1 X130.657 Y40.368 E1.72595
G1 X126.605 Y36.317 E2.0261
G1 X126.086 Y36.317 E2.05329
G1 X130.657 Y40.888 E2.39193
G1 X130.657 Y41.407 E2.41912
G1 X125.566 Y36.317 E2.79625
G1 X125.047 Y36.317 E2.82344
G1 X130.657 Y41.927 E3.23906
G1 X130.657 Y42.446 E3.26625
G1 X124.527 Y36.317 E3.72035
G1 X124.008 Y36.317 E3.74754
G1 X130.657 Y42.966 E4.24013
G1 X130.657 Y43.485 E4.26732
G1 X123.488 Y36.317 E4.7984
G1 X122.969 Y36.317 E4.82559
G1 X130.657 Y44.005 E5.39515
G1 X130.657 Y44.524 E5.42234
G1 X122.449 Y36.317 E6.03039
G1 X121.93 Y36.317 E6.05758
G1 X130.657 Y45.044 E6.70412
G1 X130.657 Y45.563 E6.73131
G1 X121.41 Y36.317 E7.41634
G1 X120.891 Y36.317 E7.44353
G1 X130.657 Y46.083 E8.16704
G1 X130.657 Y46.602 E8.19423
G1 X120.371 Y36.317 E8.95623
G1 X119.852 Y36.317 E8.98342
G1 X130.657 Y47.122 E9.78391
G1 X130.657 Y47.641 E9.8111
G1 X119.332 Y36.317 E10.65007
G1 X118.813 Y36.317 E10.67726
G1 X130.657 Y48.161 E11.55472
G1 X130.657 Y48.68 E11.58191
G1 X118.293 Y36.317 E12.49786
G1 X117.774 Y36.317 E12.52505
G1 X130.657 Y49.2 E13.47948
G1 X130.657 Y49.72 E13.50672
G1 X117.254 Y36.317 E14.49968
G1 X116.735 Y36.317 E14.52687
G1 X130.657 Y50.239 E15.55828
G1 X130.657 Y50.759 E15.58552
G1 X116.215 Y36.317 E16.65545
G1 X115.696 Y36.317 E16.68264
G1 X130.657 Y51.278 E17.79102
G1 X130.657 Y51.798 E17.81826
G1 X115.176 Y36.317 E18.96517
G1 X114.656 Y36.317 E18.99241
G1 X130.657 Y52.317 E20.1778
G1 X130.657 Y52.837 E20.20504
G1 X114.137 Y36.317 E21.42892
G1 X113.617 Y36.317 E21.45616
G1 X130.657 Y53.356 E22.71853
G1 X130.657 Y53.876 E22.74577
G1 X113.098 Y36.317 E24.04662
G1 X112.578 Y36.317 E24.07386
G1 X130.657 Y54.395 E25.4132
G1 X130.657 Y54.915 E25.44044
G1 X112.059 Y36.317 E26.81827
G1 X111.539 Y36.317 E26.84551
G1 X130.657 Y55.434 E28.26183
G1 X130.657 Y55.954 E28.28907
G1 X111.02 Y36.317 E29.74387
G1 X110.5 Y36.317 E29.77111
G1 X130.657 Y56.473 E31.2644
G1 X130.657 Y56.993 E31.29164
G1 X109.981 Y36.317 E32.82342
G1 X109.461 Y36.317 E32.85066
G1 X130.657 Y57.512 E34.42092
G1 X130.657 Y58.032 E34.44816
G1 X108.942 Y36.317 E36.05691
G1 X108.422 Y36.317 E36.08415
G1 X130.657 Y58.551 E37.73139
G1 X130.657 Y59.071 E37.75863
G1 X107.903 Y36.317 E39.44436
G1 X107.383 Y36.317 E39.4716
G1 X130.657 Y59.59 E41.19581
G1 X130.657 Y60.11 E41.22305
G1 X106.864 Y36.317 E42.98575
G1 X106.344 Y36.317 E43.01299
G1 X130.657 Y60.629 E44.81418
G1 X130.657 Y61.149 E44.84142
G1 X105.825 Y36.317 E46.68109
G1 X105.305 Y36.317 E46.70833
G1 X130.657 Y61.668 E48.58649
G1 X130.657 Y62.188 E48.61373
G1 X104.786 Y36.317 E50.53038
G1 X104.266 Y36.317 E50.55762
G1 X130.657 Y62.707 E52.51275
G1 X130.657 Y63.227 E52.53999
G1 X103.747 Y36.317 E54.53361
G1 X103.227 Y36.317 E54.56085
G1 X130.657 Y63.747 E56.593
G1 X130.657 Y64.266 E56.62019
G1 X102.708 Y36.317 E58.69079
G1 X102.188 Y36.317 E58.71803
G1 X130.657 Y64.786 E60.82715
G1 X130.657 Y65.305 E60.85434
G1 X101.669 Y36.317 E63.00191
G1 X101.149 Y36.317 E63.02915
G1 X130.657 Y65.825 E65.21524
G1 X130.657 Y66.344 E65.24243
G1 X100.63 Y36.317 E67.46697
G1 X100.63 Y36.837 E67.49421
G1 X130.137 Y66.344 E69.68023
G1 X129.617 Y66.344 E69.70747
G1 X100.63 Y37.356 E71.855
G1 X100.63 Y37.876 E71.88224
G1 X129.098 Y66.344 E73.99129
G1 X128.578 Y66.344 E74.01853
G1 X100.63 Y38.395 E76.08909
G1 X100.63 Y38.915 E76.11633
G1 X128.059 Y66.344 E78.1484
G1 X127.539 Y66.344 E78.17564
G1 X100.63 Y39.434 E80.16922
G1 X100.63 Y39.954 E80.19646
G1 X127.02 Y66.344 E82.15156
G1 X126.5 Y66.344 E82.1788
G1 X100.63 Y40.473 E84.09541
G1 X100.63 Y40.993 E84.12265
G1 X125.981 Y66.344 E86.00077
G1 X125.461 Y66.344 E86.02801
G1 X100.63 Y41.512 E87.86765
G1 X100.63 Y42.032 E87.89489
G1 X124.942 Y66.344 E89.69604
G1 X124.422 Y66.344 E89.72328
G1 X100.63 Y42.551 E91.48594
G1 X100.63 Y43.071 E91.51318
G1 X123.903 Y66.344 E93.23736
G1 X123.383 Y66.344 E93.2646
G1 X100.63 Y43.59 E94.95029
G1 X100.63 Y44.11 E94.97753
G1 X122.864 Y66.344 E96.62473
G1 X122.344 Y66.344 E96.65197
G1 X100.63 Y44.629 E98.26068
G1 X100.63 Y45.149 E98.28792
G1 X121.825 Y66.344 E99.85815
G1 X121.305 Y66.344 E99.88539
G1 X100.63 Y45.668 E101.41713
G1 X100.63 Y46.188 E101.44437
G1 X120.786 Y66.344 E102.93762
G1 X120.266 Y66.344 E102.96486
G1 X100.63 Y46.707 E104.41963
G1 X100.63 Y47.227 E104.44687
G1 X119.747 Y66.344 E105.86315
G1 X119.227 Y66.344 E105.89039
G1 X100.63 Y47.747 E107.26814
G1 X100.63 Y48.266 E107.29533
G1 X118.708 Y66.344 E108.63463
G1 X118.188 Y66.344 E108.66187
G1 X100.63 Y48.786 E109.96265
G1 X100.63 Y49.305 E109.98984
G1 X117.669 Y66.344 E111.25217
G1 X117.149 Y66.344 E111.27941
G1 X100.63 Y49.825 E112.50322
G1 X100.63 Y50.344 E112.53041
G1 X116.63 Y66.344 E113.71577
G1 X116.11 Y66.344 E113.74301
G1 X100.63 Y50.864 E114.88984
G1 X100.63 Y51.383 E114.91703
G1 X115.59 Y66.344 E116.02538
G1 X115.071 Y66.344 E116.05257
G1 X100.63 Y51.903 E117.12243
G1 X100.63 Y52.422 E117.14962
G1 X114.551 Y66.344 E118.18099
G1 X114.032 Y66.344 E118.20818
G1 X100.63 Y52.942 E119.20106
G1 X100.63 Y53.461 E119.22825
G1 X113.512 Y66.344 E120.18265
G1 X112.993 Y66.344 E120.20984
G1 X100.63 Y53.981 E121.12575
G1 X100.63 Y54.5 E121.15294
G1 X112.473 Y66.344 E122.03036
G1 X111.954 Y66.344 E122.05755
G1 X100.63 Y55.02 E122.89649
G1 X100.63 Y55.539 E122.92368
G1 X111.434 Y66.344 E123.72413
G1 X110.915 Y66.344 E123.75132
G1 X100.63 Y56.059 E124.51328
G1 X100.63 Y56.578 E124.54047
G1 X110.395 Y66.344 E125.26395
G1 X109.876 Y66.344 E125.29114
G1 X100.63 Y57.098 E125.97613
G1 X100.63 Y57.617 E126.00332
G1 X109.356 Y66.344 E126.64982
G1 X108.837 Y66.344 E126.67701
G1 X100.63 Y58.137 E127.28502
G1 X100.63 Y58.656 E127.31221
G1 X108.317 Y66.344 E127.88174
G1 X107.798 Y66.344 E127.90893
G1 X100.63 Y59.176 E128.43997
G1 X100.63 Y59.695 E128.46716
G1 X107.278 Y66.344 E128.95971
G1 X106.759 Y66.344 E128.9869
G1 X100.63 Y60.215 E129.44097
G1 X100.63 Y60.734 E129.46816
G1 X106.239 Y66.344 E129.88374
G1 X105.72 Y66.344 E129.91093
G1 X100.63 Y61.254 E130.28802
G1 X100.63 Y61.773 E130.31521
G1 X105.2 Y66.344 E130.65381
G1 X104.681 Y66.344 E130.681
G1 X100.63 Y62.293 E130.98112
G1 X100.63 Y62.813 E131.00836
G1 X104.161 Y66.344 E131.26995
G1 X103.642 Y66.344 E131.29714
G1 X100.63 Y63.332 E131.52028
G1 X100.63 Y63.852 E131.54752
G1 X103.122 Y66.344 E131.73214
G1 X102.603 Y66.344 E131.75933
G1 X100.63 Y64.371 E131.9055
G1 X100.63 Y64.891 E131.93274
G1 X102.083 Y66.344 E132.04039
G1 X101.563 Y66.344 E132.06763
G1 X100.63 Y65.41 E132.13679
G1 X100.63 Y65.93 E132.16403
G1 X101.208 Y66.508 E132.20685
; stop printing object Shape-Box id:0 copy 0
;LAYER_CHANGE
;Z:0.55
;HEIGHT:0.2
TIMELAPSE_TAKE_FRAME
G1 E131.70685 F2400
G92 E0
G1 Z.55 F9000
G1 Z.75
G1 X101.208 Y74.642
G1 Z.55
G1 E.5 F2400
;TYPE:Skirt/Brim
;WIDTH:0.44
G1 F1800
G1 X99.426 Y74.642 E.55766
G1 X97.086 Y74.245 E.63446
G1 X95.007 Y73.098 E.71129
G1 X93.423 Y71.329 E.78812
G1 X92.512 Y69.137 E.86493
G1 X92.331 Y67.548 E.91668
G1 X92.331 Y35.114 E1.96615
G1 X92.729 Y32.773 E2.04298
G1 X93.876 Y30.695 E2.11978
G1 X95.644 Y29.111 E2.19659
G1 X97.836 Y28.199 E2.27341
G1 X99.426 Y28.019 E2.32519
G1 X131.86 Y28.019 E3.37466
G1 X134.2 Y28.416 E3.45146
G1 X136.279 Y29.563 E3.52829
G1 X137.863 Y31.332 E3.60512
G1 X138.774 Y33.524 E3.68193
G1 X138.955 Y35.114 E3.73371
G1 X138.955 Y67.548 E4.78318
G1 X138.557 Y69.888 E4.85998
G1 X137.41 Y71.966 E4.93678
G1 X135.642 Y73.55 E5.01359
G1 X133.45 Y74.462 E5.09041
G1 X131.86 Y74.642 E5.14219
G1 X101.268 Y74.642 E6.13205
G1 X101.268 Y74.277 F9000
G1 F1800
G1 X99.426 Y74.277 E6.19165
G1 X97.149 Y73.88 E6.26644
G1 X95.14 Y72.736 E6.34125
G1 X93.637 Y70.98 E6.41604
G1 X92.817 Y68.818 E6.49086
G1 X92.696 Y67.548 E6.53214
G1 X92.696 Y35.114 E7.58161
G1 X93.093 Y32.836 E7.65643
G1 X94.238 Y30.828 E7.73122
G1 X95.994 Y29.325 E7.80601
G1 X98.155 Y28.505 E7.8808
G1 X99.426 Y28.384 E7.92211
G1 X131.86 Y28.384 E8.97158
G1 X134.137 Y28.781 E9.04637
G1 X136.146 Y29.925 E9.12118
G1 X137.649 Y31.682 E9.19599
G1 X138.469 Y33.843 E9.27078
G1 X138.59 Y35.114 E9.31209
G1 X138.59 Y67.548 E10.36156
G1 X138.193 Y69.825 E10.43635
G1 X137.048 Y71.833 E10.51114
G1 X135.292 Y73.336 E10.58593
G1 X133.131 Y74.156 E10.66072
G1 X131.86 Y74.277 E10.70203
G1 X101.328 Y74.277 E11.68995
G1 X101.328 Y73.912 F9000
G1 F1800
G1 X99.426 Y73.912 E11.75149
G1 X97.214 Y73.516 E11.8242
G1 X95.277 Y72.374 E11.89696
G1 X93.858 Y70.631 E11.96968
G1 X93.061 Y67.548 E12.07272
G1 X93.061 Y35.114 E13.12219
G1 X93.458 Y32.901 E13.19494
G1 X94.599 Y30.965 E13.26765
G1 X96.342 Y29.546 E13.34037
G1 X99.426 Y28.749 E13.44344
G1 X131.86 Y28.749 E14.49291
G1 X134.072 Y29.146 E14.56563
G1 X136.009 Y30.287 E14.63837
G1 X137.428 Y32.03 E14.71109
G1 X138.225 Y35.114 E14.81416
G1 X138.225 Y67.548 E15.86363
G1 X137.828 Y69.76 E15.93635
G1 X136.687 Y71.696 E16.00906
G1 X134.944 Y73.115 E16.08178
G1 X131.86 Y73.912 E16.18485
G1 X101.388 Y73.912 E17.17083
; printing object Shape-Box id:0 copy 0
G1 E16.67083 F2400
G92 E0
G1 Z.75 F9000
G1 X130.866 Y66.553
G1 Z.55
G1 E.5 F2400
;TYPE:Perimeter
;WIDTH:0.439999
G1 F5400
G1 X100.42 Y66.553 E1.48514
G1 X100.42 Y36.108 E2.47025
G1 X130.866 Y36.108 E3.45539
G1 X130.866 Y66.493 E4.43855
G1 X131.263 Y66.95 F9000
G1 F5400
G1 X100.023 Y66.95 E5.44938
G1 X100.023 Y35.711 E6.46018
G1 X131.263 Y35.711 E7.47101
G1 X131.263 Y66.89 E8.47987
G1 X131.65 Y67.338 F9000
;TYPE:External perimeter
;WIDTH:0.419999
G1 F3600
G1 X99.636 Y67.338 E9.46357
G1 X99.636 Y35.324 E10.44727
G1 X131.65 Y35.324 E11.43097
G1 X131.65 Y67.278 E12.41283
G1 X131.264 Y67.234 F9000
G1 E11.91283 F2400
G92 E0
G1 Z.75 F9000
G1 X100.826 Y36.438
G1 Z.55
G1 E.5 F2400
;TYPE:Solid infill
;WIDTH:0.53634
G1 X100.782 Y36.394 E.5025
G1 X100.723 Y36.41 E.50496
G1 X100.707 Y36.47 E.50746
G1 X100.75 Y36.513 E.50991
G1 X100.81 Y36.497 E.51241
;WIDTH:0.439999
G1 X100.718 Y37.132 E.53317
G1 X101.444 Y36.406 E.56639
G1 X102.006 Y36.406 E.58457
G1 X100.718 Y37.693 E.64349
G1 X100.718 Y38.255 E.66167
G1 X102.567 Y36.406 E.74628
G1 X103.129 Y36.406 E.76446
G1 X100.718 Y38.816 E.87476
G1 X100.718 Y39.378 E.89294
G1 X103.69 Y36.406 E1.02894
G1 X104.252 Y36.406 E1.04712
G1 X100.718 Y39.939 E1.20881
G1 X100.718 Y40.501 E1.22699
G1 X104.813 Y36.406 E1.41438
G1 X105.375 Y36.406 E1.43256
G1 X100.718 Y41.063 E1.64566
G1 X100.718 Y41.624 E1.66381
G1 X105.936 Y36.406 E1.90258
G1 X106.498 Y36.406 E1.92076
G1 X100.718 Y42.186 E2.18525
G1 X100.718 Y42.747 E2.2034
G1 X107.06 Y36.406 E2.49358
G1 X107.621 Y36.406 E2.51173
G1 X100.718 Y43.309 E2.82761
G1 X100.718 Y43.87 E2.84576
G1 X108.183 Y36.406 E3.18733
G1 X108.744 Y36.406 E3.20548
G1 X100.718 Y44.432 E3.57275
G1 X100.718 Y44.993 E3.5909
G1 X109.306 Y36.406 E3.98386
G1 X109.867 Y36.406 E4.00201
G1 X100.718 Y45.555 E4.42066
G1 X100.718 Y46.117 E4.43884
G1 X110.429 Y36.406 E4.88321
G1 X110.99 Y36.406 E4.90136
G1 X100.718 Y46.678 E5.3714
G1 X100.718 Y47.24 E5.38958
G1 X111.552 Y36.406 E5.88534
G1 X112.114 Y36.406 E5.90352
G1 X100.718 Y47.801 E6.42497
G1 X100.718 Y48.363 E6.44315
G1 X112.675 Y36.406 E6.9903
G1 X113.237 Y36.406 E7.00848
G1 X100.718 Y48.924 E7.58132
G1 X100.718 Y49.486 E7.5995
G1 X113.798 Y36.406 E8.19804
G1 X114.36 Y36.406 E8.21622
G1 X100.718 Y50.047 E8.84045
G1 X100.718 Y50.609 E8.85863
G1 X114.921 Y36.406 E9.50855
G1 X115.483 Y36.406 E9.52673
G1 X100.718 Y51.171 E10.20237
G1 X100.718 Y51.732 E10.22052
G1 X116.044 Y36.406 E10.92183
G1 X116.606 Y36.406 E10.94001
G1 X100.718 Y52.294 E11.66704
G1 X100.718 Y52.855 E11.68519
G1 X117.168 Y36.406 E12.43791
G1 X117.729 Y36.406 E12.45606
G1 X100.718 Y53.417 E13.23448
G1 X100.718 Y53.978 E13.25263
G1 X118.291 Y36.406 E14.05674
G1 X118.852 Y36.406 E14.07489
G1 X100.718 Y54.54 E14.90469
G1 X100.718 Y55.101 E14.92284
G1 X119.414 Y36.406 E15.77834
G1 X119.975 Y36.406 E15.79649
G1 X100.718 Y55.663 E16.67768
G1 X100.718 Y56.224 E16.69583
G1 X120.537 Y36.406 E17.60272
G1 X121.098 Y36.406 E17.62087
G1 X100.718 Y56.786 E18.55345
G1 X100.718 Y57.348 E18.57163
G1 X121.66 Y36.406 E19.52993
G1 X122.222 Y36.406 E19.54811
